Numix-uTouch/48x48/apps/brasero.svg

<?xml version="1.0" encoding="UTF-8" standalone="no"?>
<svg
   xmlns:dc="http://purl.org/dc/elements/1.1/"
   xmlns:cc="http://creativecommons.org/ns#"
   xmlns:rdf="http://www.w3.org/1999/02/22-rdf-syntax-ns#"
   xmlns:svg="http://www.w3.org/2000/svg"
   xmlns="http://www.w3.org/2000/svg"
   xmlns:xlink="http://www.w3.org/1999/xlink"
   xmlns:sodipodi="http://sodipodi.sourceforge.net/DTD/sodipodi-0.dtd"
   xmlns:inkscape="http://www.inkscape.org/namespaces/inkscape"
   width="48"
   height="48"
   id="svg2"
   version="1.1"
   inkscape:version="0.48.4 r9939"
   sodipodi:docname="brasero.svg">
  <metadata
     id="metadata45">
    <rdf:RDF>
      <cc:Work
         rdf:about="">
        <dc:format>image/svg+xml</dc:format>
        <dc:type
           rdf:resource="http://purl.org/dc/dcmitype/StillImage" />
      </cc:Work>
    </rdf:RDF>
  </metadata>
  <sodipodi:namedview
     pagecolor="#ffffff"
     bordercolor="#666666"
     borderopacity="1"
     objecttolerance="10"
     gridtolerance="10"
     guidetolerance="10"
     inkscape:pageopacity="0"
     inkscape:pageshadow="2"
     inkscape:window-width="672"
     inkscape:window-height="480"
     id="namedview43"
     showgrid="false"
     inkscape:zoom="4.9166667"
     inkscape:cx="21.152542"
     inkscape:cy="24.40678"
     inkscape:window-x="0"
     inkscape:window-y="0"
     inkscape:window-maximized="0"
     inkscape:current-layer="svg2" />
  <defs
     id="defs4">
    <linearGradient
       gradientTransform="matrix(0,-1.1025678,1.1043439,0,2.9995944,1049.3626)"
       xlink:href="#1"
       id="0"
       x1="0"
       gradientUnits="userSpaceOnUse"
       x2="38" />
    <linearGradient
       id="1">
      <stop
         stop-color="#2d2d2d"
         id="stop8" />
      <stop
         offset="1"
         stop-color="#4b4b4b"
         id="stop10" />
    </linearGradient>
    <linearGradient
       gradientTransform="matrix(0.80266882,0,0,0.80265702,2.8923564,1010.9547)"
       xlink:href="#3"
       id="2"
       y1="24"
       x1="24"
       y2="13"
       gradientUnits="userSpaceOnUse"
       x2="32.651" />
    <linearGradient
       id="3">
      <stop
         stop-color="#eaba31"
         id="stop14" />
      <stop
         offset="1"
         stop-color="#ff9200"
         id="stop16" />
    </linearGradient>
    <linearGradient
       xlink:href="#1"
       id="4"
       x1="2"
       x2="46"
       gradientUnits="userSpaceOnUse"
       gradientTransform="translate(-1052.3622,-1004.3622)" />
    <radialGradient
       r="128"
       cy="160"
       cx="148.004"
       gradientTransform="matrix(0.1831,0,0,0.1831,-3.10079,-5.2963796)"
       gradientUnits="userSpaceOnUse"
       id="radialGradient3052"
       xlink:href="#1-6"
       inkscape:collect="always" />
    <linearGradient
       id="1-6">
      <stop
         stop-color="#f07620"
         id="stop8-6"
         offset="0"
         style="stop-color:#ffecb3;stop-opacity:1;" />
      <stop
         offset="1"
         stop-color="#ffd452"
         id="stop10-0"
         style="stop-color:#f07620;stop-opacity:1;" />
    </linearGradient>
    <radialGradient
       r="128"
       cy="160"
       cx="148.004"
       gradientTransform="matrix(0.1831,0,0,0.1831,-3.10079,-5.29638)"
       gradientUnits="userSpaceOnUse"
       id="radialGradient3013"
       xlink:href="#1-6"
       inkscape:collect="always" />
    <linearGradient
       inkscape:collect="always"
       xlink:href="#1"
       id="linearGradient3046"
       gradientUnits="userSpaceOnUse"
       gradientTransform="matrix(0,-1.1025678,1.1043439,0,2.9995944,45.0004)"
       x1="0"
       x2="38" />
    <linearGradient
       inkscape:collect="always"
       xlink:href="#1"
       id="linearGradient3049"
       gradientUnits="userSpaceOnUse"
       gradientTransform="translate(-48,-1004.3622)"
       x1="2"
       x2="46" />
  </defs>
  <path
     inkscape:connector-curvature="0"
     style="fill:url(#radialGradient3013);fill-opacity:1;fill-rule:nonzero"
     d="m 47.437,11.547375 0,24.90625 c 0,10.25 0,10.984375 -10.984375,10.984375 l -24.902344,0 C 0.562,47.438 0.562,46.703625 0.562,36.453625 l 0,-24.90625 c 0,-10.25 0,-10.984375 10.988281,-10.984375 l 24.902344,0 C 47.437,0.563 47.437,1.297375 47.437,11.547375 z"
     id="path11" />
  <path
     inkscape:connector-curvature="0"
     id="path15"
     d="m 38.265125,47.438 c 2.542969,-0.01172 4.378906,-0.08203 5.710937,-0.441406 l -4.230468,-7.25 -4.484375,7.691406 1.191406,0 c 0.640625,0 1.242187,0 1.8125,0 z m 1.480469,-7.691406 -5.125,-8.789063 -5.128906,8.789063 z m 0,0 7.652344,0 c 0.03125,-0.972656 0.03906,-2.0625 0.03906,-3.296875 l 0,-1.097657 -2.5625,-4.394531 z m 5.128906,-8.789063 -5.128906,-8.789062 -5.125,8.789062 z m 0,0 2.5625,0 0,-4.394531 z m -10.253906,0 -5.128906,-8.789062 -5.125,8.789062 z m -10.253906,0 -5.128907,8.789063 10.253907,0 z m 0,0 -5.128907,-8.789062 -5.125,8.789062 z m -10.253907,0 -5.128906,8.789063 10.253906,0 z m 0,0 -5.128906,-8.789062 -5.125,8.789062 z m -10.253906,0 L 0.562,36.605969 c 0,1.167969 0.01172,2.210937 0.03906,3.140625 l 8.382813,0 z m 0,0 -3.296875,-5.648437 0,5.648437 z m 5.125,8.789063 -4.3125,7.394531 C 6.269031,47.434094 8.479969,47.438 11.550281,47.438 l 1.921875,0 z m 0,-17.578125 -5.125,-8.789063 -3.296875,5.648438 0,3.140625 z m 0,0 10.253906,0 -5.125,-8.789063 z m 5.128906,-8.789063 -5.128906,-8.7890625 -5.125,8.7890625 z m 0,0 10.253907,0 -5.128907,-8.7890625 z m 5.125,-8.7890625 L 16.886219,0.563 l -5.335938,0 c -0.07813,0 -0.140625,0 -0.214843,0 L 8.983875,4.5903435 z m 0,0 10.253907,0 L 27.140125,0.563 l -5.550781,0 z m 10.253907,0 10.253906,0 L 37.394031,0.563 c -0.3125,0 -0.609375,0 -0.941406,0 l -4.609375,0 z m 0,0 -5.125,8.7890625 10.253906,0 z m 5.128906,8.7890625 10.253906,0 -5.128906,-8.7890625 z m 0,0 -5.128906,8.789063 10.253906,0 z m 5.125,8.789063 7.691406,0 0,-4.394531 -2.5625,-4.394532 z m 5.128906,-8.789063 2.5625,0 0,-1.832031 c 0,-0.914063 -0.0078,-1.7500005 -0.02344,-2.5234375 z m -15.382812,8.789063 -5.125,-8.789063 -5.128907,8.789063 z m 10.253906,-17.5781255 7.308594,0 C 46.4995,1.832531 45.167469,0.961438 42.022938,0.688 z m -30.761719,0 L 6.679188,0.637219 C 3.019031,0.84425 1.538562,1.633312 0.944812,4.5903435 z m -5.125,8.7890625 -3.238281,-5.5546875 c -0.04297,1.074219 -0.05859,2.3085925 -0.05859,3.7226565 l 0,1.832031 z m 15.378906,26.367188 -4.484375,7.691406 8.972656,0 z m 10.253907,0 -4.484376,7.691406 8.972657,0 z M 2.59325,46.367688 0.991688,43.621594 C 1.284656,44.938 1.776844,45.801281 2.59325,46.367688 z"
     style="fill:#ffffff;fill-opacity:0.05100002" />
  <path
     style="fill:#f9f9f9;fill-opacity:1"
     d="M 22.15625 9 C 17.299599 9 12.951124 11.0876 9.875 14.375 C 11.48488 14.7084 11.599802 17.69565 10.4375 18.28125 C 9.0072155 19.00175 9 22.59375 9 22.59375 C 9 22.59375 10.444619 21.8455 11.875 21.125 C 13.305297 20.4045 15.461696 21.12345 14.03125 21.84375 C 12.600877 22.56435 11.875 24.71875 11.875 24.71875 C 11.875 24.71875 13.319477 24.00195 14.75 23.28125 C 15.302481 23.00305 15.96045 22.94365 16.5625 22.96875 C 16.916626 25.39565 12.926958 27.67265 14.75 26.84375 C 15.071949 26.68155 16.724258 26.52575 17.3125 26.46875 C 17.3188 26.49475 17.3062 26.50525 17.3125 26.53125 C 15.87428 28.57855 15.912925 30.8803 16.1875 33.3125 C 16.1875 33.3125 17.508156 31.56955 18.59375 30.46875 C 19.405368 32.33385 19.753104 32.2836 19.0625 35.4375 C 18.352649 37.5884 16.9375 38.3125 16.9375 38.3125 C 16.9375 38.3125 20.507127 38.31115 21.9375 37.59375 C 23.367847 36.87325 24.069622 34.7206 25.5 34 C 26.93038 33.2795 29.09375 33.96875 29.09375 33.96875 L 27.65625 34.71875 C 26.225888 35.43925 26.21875 39 26.21875 39 C 26.21875 39 29.793658 35.41705 33.375 35.40625 C 34.788743 35.39625 35.39868 35.4225 36 35.4375 C 37.880895 32.7179 39 29.40015 39 25.84375 C 39 16.53565 31.464512 9 22.15625 9 z M 22.125 21.0625 C 24.788718 21.0625 26.9375 23.23835 26.9375 25.90625 C 26.9375 28.57425 24.788719 30.71875 22.125 30.71875 C 19.461281 30.71875 17.3125 28.57425 17.3125 25.90625 C 17.3125 23.23835 19.461281 21.0625 22.125 21.0625 z M 22.125 23.46875 C 20.79314 23.46875 19.71875 24.57235 19.71875 25.90625 C 19.71875 27.24025 20.79314 28.3125 22.125 28.3125 C 23.456858 28.3125 24.53125 27.24025 24.53125 25.90625 C 24.53125 24.57235 23.456858 23.46875 22.125 23.46875 z "
     id="path39" />
</svg>

<svg xmlns="http://www.w3.org/2000/svg" viewBox="0 0 48 48"><defs><radialGradient id="0" cx="24" cy="24" r="23.437" gradientUnits="userSpaceOnUse"><stop stop-color="#4d4d4d"/><stop offset="1" stop-color="#2d2d2d"/></radialGradient></defs><path d="m 47.44 11.547 l 0 24.906 c 0 10.25 0 10.984 -10.984 10.984 l -24.902 0 c -10.988 0 -10.988 -0.734 -10.988 -10.984 l 0 -24.906 c 0 -10.25 0 -10.984 10.988 -10.984 l 24.902 0 c 10.984 0 10.984 0.734 10.984 10.984" fill="url(#0)"/><path d="m 22.16 9 c -4.855 0 -9.207 2.086 -12.281 5.375 c 1.609 0.332 1.727 3.32 0.563 3.906 c -1.43 0.719 -1.438 4.313 -1.438 4.313 c 0 0 1.445 -0.75 2.875 -1.469 c 1.43 -0.719 3.586 0 2.156 0.719 c -1.43 0.719 -2.156 2.875 -2.156 2.875 c 0 0 1.445 -0.719 2.875 -1.438 c 0.551 -0.277 1.211 -0.336 1.813 -0.313 c 0.355 2.426 -3.637 4.703 -1.813 3.875 c 0.32 -0.164 1.973 -0.316 2.563 -0.375 c 0.008 0.027 -0.008 0.035 0 0.063 c -1.438 2.047 -1.398 4.348 -1.125 6.781 c 0 0 1.32 -1.742 2.406 -2.844 c 0.813 1.863 1.16 1.816 0.469 4.969 c -0.711 2.152 -2.125 2.875 -2.125 2.875 c 0 0 3.57 0 5 -0.719 c 1.43 -0.719 2.133 -2.875 3.563 -3.594 c 1.43 -0.719 3.594 -0.031 3.594 -0.031 l -1.438 0.75 c -1.43 0.719 -1.438 4.281 -1.438 4.281 c 0 0 3.574 -3.582 7.156 -3.594 c 1.414 -0.012 2.023 0.016 2.625 0.031 c 1.883 -2.719 3 -6.04 3 -9.594 c 0 -9.309 -7.535 -16.844 -16.844 -16.844 m -0.031 12.06 c 2.664 0 4.813 2.176 4.813 4.844 c 0 2.668 -2.148 4.813 -4.813 4.813 c -2.664 0 -4.813 -2.145 -4.813 -4.813 c 0 -2.668 2.148 -4.844 4.813 -4.844 m 0 2.406 c -1.332 0 -2.406 1.105 -2.406 2.438 c 0 1.336 1.074 2.406 2.406 2.406 c 1.332 0 2.406 -1.07 2.406 -2.406 c 0 -1.332 -1.074 -2.438 -2.406 -2.438 m 0 0" fill="#fff"/><path d="m 38.27 47.44 c 2.543 -0.012 4.379 -0.082 5.711 -0.441 l -4.23 -7.25 -4.484 7.691 1.191 0 c 0.641 0 1.242 0 1.813 0 z m 1.48 -7.691 -5.125 -8.789 -5.129 8.789 z m 0 0 7.652 0 c 0.031 -0.973 0.039 -2.063 0.039 -3.297 l 0 -1.098 -2.563 -4.395 z m 5.129 -8.789 -5.129 -8.789 -5.125 8.789 z m 0 0 2.563 0 0 -4.395 z m -10.254 0 -5.129 -8.789 -5.125 8.789 z m -10.254 0 -5.129 8.789 10.254 0 z m 0 0 -5.129 -8.789 -5.125 8.789 z m -10.254 0 -5.129 8.789 10.254 0 z m 0 0 -5.129 -8.789 -5.125 8.789 z m -10.254 0 -3.297 5.648 c 0 1.168 0.012 2.211 0.039 3.141 l 8.383 0 z m 0 0 -3.297 -5.648 0 5.648 z m 5.125 8.789 -4.313 7.395 c 1.598 0.293 3.809 0.297 6.879 0.297 l 1.922 0 z m 0 -17.578 -5.125 -8.789 -3.297 5.648 0 3.141 z m 0 0 10.254 0 -5.125 -8.789 z m 5.129 -8.789 -5.129 -8.789 -5.125 8.789 z m 0 0 10.254 0 -5.129 -8.789 z m 5.125 -8.789 -2.352 -4.03 -5.336 0 c -0.078 0 -0.141 0 -0.215 0 l -2.352 4.03 z m 0 0 10.254 0 -2.352 -4.03 -5.551 0 z m 10.254 0 10.254 0 l -2.352 -4.03 c -0.313 0 -0.609 0 -0.941 0 l -4.609 0 z m 0 0 -5.125 8.789 10.254 0 z m 5.129 8.789 10.254 0 -5.129 -8.789 z m 0 0 -5.129 8.789 10.254 0 z m 5.125 8.789 7.691 0 0 -4.395 -2.563 -4.395 z m 5.129 -8.789 2.563 0 0 -1.832 c 0 -0.914 -0.008 -1.75 -0.023 -2.523 z m -15.383 8.789 -5.125 -8.789 -5.129 8.789 z m 10.254 -17.578 7.309 0 c -0.555 -2.758 -1.887 -3.629 -5.03 -3.902 z m -30.762 0 l -2.305 -3.953 c -3.66 0.207 -5.141 0.996 -5.734 3.953 z m -5.125 8.789 l -3.238 -5.555 c -0.043 1.074 -0.059 2.309 -0.059 3.723 l 0 1.832 z m 15.379 26.367 -4.484 7.691 8.973 0 z m 10.254 0 -4.484 7.691 8.973 0 z m -26.898 6.621 -1.602 -2.746 c 0.293 1.316 0.785 2.18 1.602 2.746 z" fill="#fff" fill-opacity="0.035"/></svg>
